Server.local.options.numInputBusChannels_(22);
Server.local.options.numOutputBusChannels_(22);
Server.local.options.memSize_(400000);
Server.local.options.numAudioBusChannels_(4096*2);
Server.local.options.numControlBusChannels_(4096*2);
Server.local.options.maxNodes_(4096);
Server.local.options.hardwareBufferSize_(128);

//CocoaDocument.defaultFont_(Font("Monaco", 13));